X:1
T:The Blackbird
R:hornpipe
M:4/4
L:1/8
K:G
DE | "D" F2 FA    "G" GF D2 | "D" de  (3fed  dcAF | "C" G2     "(G)" GFDE | "D" F2 AF   "C" G2 AG |
     "D" F2 AF    "G" GF D2 | "D" de  (3fed  dcAF | "D" AdcA     "C" GcAG | "D" FD     D2      D2 :|
de | "D" f2 (3def "G" gfe^c | "D" d^cde "A" fd A2 | "D" f2 (3def "G" gfed | "D" fagf "C" g2 (3efg |
     "D" af"A"ge  "D" fde^c | "D" ~d2 de "A" fdAG | "D" AdcA     "C" GcAG | "D" FD     D2      D2 :|
